; generated by Slic3r 1.2.9 on 2015-08-29 at 16:01:23

; external perimeters extrusion width = 0.40mm
; perimeters extrusion width = 0.67mm
; infill extrusion width = 0.67mm
; solid infill extrusion width = 0.67mm
; top infill extrusion width = 0.67mm

M190 S70 ; set bed temperature
M104 S230 ; set temperature
G28 ; home all axes
G1 Z5 F5000 ; lift nozzle

M109 S230 ; wait for temperature to be reached
G21 ; set units to millimeters
G90 ; use absolute coordinates
M82 ; use absolute distances for extrusion
G92 E0
M106 S255
G1 Z0.200 F9000.000
G1 E-1.00000 F1800.00000
G92 E0
G1 X92.725 Y91.992 F9000.000
G1 E1.00000 F1800.00000
G1 X95.000 Y91.229 E1.05130 F5400.000
G1 X105.000 Y91.229 E1.26506
G1 X106.680 Y91.623 E1.30194
G1 X108.008 Y92.725 E1.33883 F5400.000
G1 X108.771 Y95.000 E1.39012
G1 X108.771 Y105.000 E1.60389
G1 X108.377 Y106.680 E1.64077
G1 X107.275 Y108.008 E1.67765
G1 X105.000 Y108.771 E1.72895
G1 X95.000 Y108.771 E1.94271
G1 X93.320 Y108.377 E1.97960
G1 X91.992 Y107.275 E2.01648
G1 X91.229 Y105.000 E2.06778
G1 X91.229 Y95.000 E2.28154
G1 X91.623 Y93.320 E2.31842
G1 X92.687 Y92.038 E2.35402
G1 X92.934 Y92.175 F9000.000
G1 X92.975 Y92.128 E2.35534 F5400.000
G1 X95.000 Y91.486 E2.40076
G1 X105.000 Y91.486 E2.61452
G1 X106.617 Y91.880 E2.65011
G1 X107.872 Y92.975 E2.68569 F5400.000
G1 X108.514 Y95.000 E2.73112
G1 X108.514 Y105.000 E2.94488
G1 X108.120 Y106.617 E2.98046
G1 X107.025 Y107.872 E3.01605
G1 X105.000 Y108.514 E3.06147
G1 X95.000 Y108.514 E3.27523
G1 X93.383 Y108.120 E3.31082
G1 X92.128 Y107.025 E3.34641
G1 X91.486 Y105.000 E3.39183
G1 X91.486 Y95.000 E3.60559
G1 X91.880 Y93.383 E3.64117
G1 X92.895 Y92.220 E3.67416
G1 X93.138 Y92.363 F9000.000
G1 X93.223 Y92.270 E3.67685 F5400.000
G1 X95.000 Y91.743 E3.71647
G1 X105.000 Y91.743 E3.93023
G1 X106.553 Y92.137 E3.96447
G1 X107.730 Y93.223 E3.99871 F5400.000
G1 X108.257 Y95.000 E4.03833
G1 X108.257 Y105.000 E4.25210
G1 X107.863 Y106.553 E4.28634
G1 X106.777 Y107.730 E4.32058
G1 X105.000 Y108.257 E4.36020
G1 X95.000 Y108.257 E4.57396
G1 X93.447 Y107.863 E4.60820
G1 X92.270 Y106.777 E4.64244
G1 X91.743 Y105.000 E4.68206
G1 X91.743 Y95.000 E4.89582
G1 X92.137 Y93.447 E4.93006
G1 X93.097 Y92.407 E4.96033
G1 E3.96033 F1800.00000
G92 E0
G1 X104.593 Y104.593 F9000.000
G1 E1.00000 F1800.00000
G1 X95.407 Y104.593 E1.19636 F5400.000
G1 X95.407 Y95.407 E1.39272
G1 X104.593 Y95.407 E1.58908
G1 X104.593 Y104.533 E1.78415
G1 X104.850 Y104.850 F9000.000
G1 X95.150 Y104.850 E1.99150 F5400.000
G1 X95.150 Y95.150 E2.19885
G1 X104.850 Y95.150 E2.40620
G1 X104.850 Y104.790 E2.61227
G1 X104.504 Y104.650 F9000.000
G1 X104.449 Y95.700 F9000.000
G1 X104.300 Y95.551 E2.61679 F5400.000
G1 X103.935 Y95.551 E2.62460
G1 X104.449 Y96.065 E2.64017
G1 X104.449 Y96.429 E2.64798
G1 X103.571 Y95.551 E2.67460
G1 X103.206 Y95.551 E2.68241
G1 X104.449 Y96.794 E2.72008
G1 X104.449 Y97.158 E2.72789
G1 X102.842 Y95.551 E2.77661
G1 X102.477 Y95.551 E2.78442
G1 X104.449 Y97.523 E2.84419
G1 X104.449 Y97.887 E2.85200
G1 X102.113 Y95.551 E2.92282
G1 X101.748 Y95.551 E2.93063
G1 X104.449 Y98.252 E3.01250
G1 X104.449 Y98.616 E3.02031
G1 X101.384 Y95.551 E3.11323
G1 X101.019 Y95.551 E3.12104
G1 X104.449 Y98.981 E3.22500
G1 X104.449 Y99.345 E3.23282
G1 X100.655 Y95.551 E3.34783
G1 X100.290 Y95.551 E3.35564
G1 X104.449 Y99.710 E3.48171
G1 X104.449 Y100.075 E3.48952
G1 X99.925 Y95.551 E3.62664
G1 X99.561 Y95.551 E3.63445
G1 X104.449 Y100.439 E3.78261
G1 X104.449 Y100.804 E3.79042
G1 X99.196 Y95.551 E3.94964
G1 X98.832 Y95.551 E3.95745
G1 X104.449 Y101.168 E4.12771
G1 X104.449 Y101.533 E4.13553
G1 X98.467 Y95.551 E4.31684
G1 X98.103 Y95.551 E4.32465
G1 X104.449 Y101.897 E4.51701
G1 X104.449 Y102.262 E4.52482
G1 X97.738 Y95.551 E4.72824
G1 X97.374 Y95.551 E4.73605
G1 X104.449 Y102.626 E4.95051
G1 X104.449 Y102.991 E4.95832
G1 X97.009 Y95.551 E5.18383
G1 X96.645 Y95.551 E5.19165
G1 X104.449 Y103.355 E5.42820
G1 X104.449 Y103.720 E5.43602
G1 X96.280 Y95.551 E5.68363
G1 X95.916 Y95.551 E5.69144
G1 X104.449 Y104.084 E5.95010
G1 X104.429 Y104.429 E5.95750
G1 X95.571 Y95.571 E6.22599
G1 X95.551 Y95.916 E6.23339
G1 X104.084 Y104.449 E6.49204
G1 X103.720 Y104.449 E6.49986
G1 X95.551 Y96.280 E6.74747
G1 X95.551 Y96.645 E6.75528
G1 X103.355 Y104.449 E6.99184
G1 X102.991 Y104.449 E6.99965
G1 X95.551 Y97.009 E7.22516
G1 X95.551 Y97.374 E7.23297
G1 X102.626 Y104.449 E7.44743
G1 X102.262 Y104.449 E7.45524
G1 X95.551 Y97.738 E7.65865
G1 X95.551 Y98.103 E7.66647
G1 X101.897 Y104.449 E7.85883
G1 X101.533 Y104.449 E7.86664
G1 X95.551 Y98.467 E8.04795
G1 X95.551 Y98.832 E8.05576
G1 X101.168 Y104.449 E8.22602
G1 X100.804 Y104.449 E8.23384
G1 X95.551 Y99.196 E8.39305
G1 X95.551 Y99.561 E8.40086
G1 X100.439 Y104.449 E8.54902
G1 X100.075 Y104.449 E8.55684
G1 X95.551 Y99.925 E8.69395
G1 X95.551 Y100.290 E8.70176
G1 X99.710 Y104.449 E8.82782
G1 X99.345 Y104.449 E8.83564
G1 X95.551 Y100.655 E8.95065
G1 X95.551 Y101.019 E8.95846
G1 X98.981 Y104.449 E9.06243
G1 X98.616 Y104.449 E9.07024
G1 X95.551 Y101.384 E9.16315
G1 X95.551 Y101.748 E9.17097
G1 X98.252 Y104.449 E9.25283
G1 X97.887 Y104.449 E9.26064
G1 X95.551 Y102.113 E9.33146
G1 X95.551 Y102.477 E9.33927
G1 X97.523 Y104.449 E9.39904
G1 X97.158 Y104.449 E9.40685
G1 X95.551 Y102.842 E9.45557
G1 X95.551 Y103.206 E9.46338
G1 X96.794 Y104.449 E9.50105
G1 X96.429 Y104.449 E9.50886
G1 X95.551 Y103.571 E9.53547
G1 X95.551 Y103.935 E9.54329
G1 X96.065 Y104.449 E9.55885
G1 X95.700 Y104.449 E9.56667
G1 X95.551 Y104.300 E9.57119
M104 S200 ; set temperature
G1 Z0.400 F9000.000
G1 X104.307 Y104.307 F9000.000
G1 X95.693 Y104.307 E10.02125 F2400.000
G1 X95.693 Y95.693 E10.47132
G1 X104.307 Y95.693 E10.92139
G1 X104.307 Y104.247 E11.36833
G1 X104.800 Y104.800 F9000.000
G1 X95.200 Y104.800 E11.65336 F2400.000
G1 X95.200 Y95.200 E11.93840
G1 X104.800 Y95.200 E12.22344
G1 X104.800 Y104.740 E12.50669
G1 X104.454 Y104.600 F9000.000
G1 X103.620 Y103.927 F9000.000
G1 X103.927 Y103.620 E12.53074 F2700.000
G1 X103.927 Y102.677 E12.58306
G1 X102.677 Y103.927 E12.68109
G1 X101.733 Y103.927 E12.73341
G1 X103.927 Y101.733 E12.90544
G1 X103.927 Y100.790 E12.95776
G1 X100.790 Y103.927 E13.20378
G1 X99.847 Y103.927 E13.25610
G1 X103.927 Y99.847 E13.57610
G1 X103.927 Y98.903 E13.62842
G1 X98.903 Y103.927 E14.02242
G1 X97.960 Y103.927 E14.07474
G1 X103.927 Y97.960 E14.54273
G1 X103.927 Y97.017 E14.59505
G1 X97.017 Y103.927 E15.13703
G1 X96.093 Y103.907 E15.18825
G1 X103.907 Y96.093 E15.80108
G1 X102.983 Y96.073 E15.85231
G1 X96.073 Y102.983 E16.39429
G1 X96.073 Y102.040 E16.44660
G1 X102.040 Y96.073 E16.91459
G1 X101.097 Y96.073 E16.96691
G1 X96.073 Y101.097 E17.36091
G1 X96.073 Y100.153 E17.41323
G1 X100.153 Y96.073 E17.73324
G1 X99.210 Y96.073 E17.78556
G1 X96.073 Y99.210 E18.03157
G1 X96.073 Y98.267 E18.08389
G1 X98.267 Y96.073 E18.25592
G1 X97.323 Y96.073 E18.30824
G1 X96.073 Y97.323 E18.40627
G1 X96.073 Y96.380 E18.45859
G1 X96.380 Y96.073 E18.48264
G1 Z0.600 F9000.000
G1 X104.307 Y104.307 F9000.000
G1 X95.693 Y104.307 E18.93271 F2400.000
G1 X95.693 Y95.693 E19.38278
G1 X104.307 Y95.693 E19.83285
G1 X104.307 Y104.247 E20.27978
G1 X104.800 Y104.800 F9000.000
G1 X95.200 Y104.800 E20.56482 F2400.000
G1 X95.200 Y95.200 E20.84985
G1 X104.800 Y95.200 E21.13489
G1 X104.800 Y104.740 E21.41814
G1 X104.454 Y104.600 F9000.000
G1 X103.927 Y96.380 F9000.000
G1 X103.620 Y96.073 E21.44219 F2700.000
G1 X102.677 Y96.073 E21.49451
G1 X103.927 Y97.323 E21.59255
G1 X103.927 Y98.267 E21.64487
G1 X101.733 Y96.073 E21.81689
G1 X100.790 Y96.073 E21.86921
G1 X103.927 Y99.210 E22.11523
G1 X103.927 Y100.153 E22.16755
G1 X99.847 Y96.073 E22.48756
G1 X98.903 Y96.073 E22.53988
G1 X103.927 Y101.097 E22.93388
G1 X103.927 Y102.040 E22.98620
G1 X97.960 Y96.073 E23.45418
G1 X97.017 Y96.073 E23.50650
G1 X103.927 Y102.983 E24.04848
G1 X103.907 Y103.907 E24.09971
G1 X96.093 Y96.093 E24.71254
G1 X96.073 Y97.017 E24.76376
G1 X102.983 Y103.927 E25.30574
G1 X102.040 Y103.927 E25.35806
G1 X96.073 Y97.960 E25.82605
G1 X96.073 Y98.903 E25.87837
G1 X101.097 Y103.927 E26.27236
G1 X100.153 Y103.927 E26.32468
G1 X96.073 Y99.847 E26.64469
G1 X96.073 Y100.790 E26.69701
G1 X99.210 Y103.927 E26.94303
G1 X98.267 Y103.927 E26.99535
G1 X96.073 Y101.733 E27.16737
G1 X96.073 Y102.677 E27.21969
G1 X97.323 Y103.927 E27.31773
G1 X96.380 Y103.927 E27.37005
G1 X96.073 Y103.620 E27.39409
G1 Z0.800 F9000.000
G1 X104.307 Y104.307 F9000.000
G1 X95.693 Y104.307 E27.84416 F2400.000
G1 X95.693 Y95.693 E28.29423
G1 X104.307 Y95.693 E28.74430
G1 X104.307 Y104.247 E29.19123
G1 X104.800 Y104.800 F9000.000
G1 X95.200 Y104.800 E29.47627 F2400.000
G1 X95.200 Y95.200 E29.76131
G1 X104.800 Y95.200 E30.04634
G1 X104.800 Y104.740 E30.32960
G1 X104.454 Y104.600 F9000.000
G1 X103.620 Y103.927 F9000.000
G1 X103.927 Y103.620 E30.35364 F2700.000
G1 X103.927 Y102.677 E30.40596
G1 X102.677 Y103.927 E30.50400
G1 X101.733 Y103.927 E30.55632
G1 X103.927 Y101.733 E30.72834
G1 X103.927 Y100.790 E30.78066
G1 X100.790 Y103.927 E31.02668
G1 X99.847 Y103.927 E31.07900
G1 X103.927 Y99.847 E31.39901
G1 X103.927 Y98.903 E31.45132
G1 X98.903 Y103.927 E31.84532
G1 X97.960 Y103.927 E31.89764
G1 X103.927 Y97.960 E32.36563
G1 X103.927 Y97.017 E32.41795
G1 X97.017 Y103.927 E32.95992
G1 X96.093 Y103.907 E33.01114
G1 X103.907 Y96.093 E33.62397
G1 X102.983 Y96.073 E33.67520
G1 X96.073 Y102.983 E34.21717
G1 X96.073 Y102.040 E34.26949
G1 X102.040 Y96.073 E34.73748
G1 X101.097 Y96.073 E34.78980
G1 X96.073 Y101.097 E35.18379
G1 X96.073 Y100.153 E35.23611
G1 X100.153 Y96.073 E35.55612
G1 X99.210 Y96.073 E35.60843
G1 X96.073 Y99.210 E35.85445
G1 X96.073 Y98.267 E35.90677
G1 X98.267 Y96.073 E36.07879
G1 X97.323 Y96.073 E36.13111
G1 X96.073 Y97.323 E36.22915
G1 X96.073 Y96.380 E36.28147
G1 X96.380 Y96.073 E36.30551
G1 Z1.000 F9000.000
G1 X104.307 Y104.307 F9000.000
G1 X95.693 Y104.307 E36.75558 F2400.000
G1 X95.693 Y95.693 E37.20565
G1 X104.307 Y95.693 E37.65572
G1 X104.307 Y104.247 E38.10265
G1 X104.800 Y104.800 F9000.000
G1 X95.200 Y104.800 E38.38769 F2400.000
G1 X95.200 Y95.200 E38.67273
G1 X104.800 Y95.200 E38.95776
G1 X104.800 Y104.740 E39.24102
G1 X104.454 Y104.600 F9000.000
G1 X103.927 Y96.380 F9000.000
G1 X103.620 Y96.073 E39.26507 F2700.000
G1 X102.677 Y96.073 E39.31738
G1 X103.927 Y97.323 E39.41542
G1 X103.927 Y98.267 E39.46774
G1 X101.733 Y96.073 E39.63977
G1 X100.790 Y96.073 E39.69209
G1 X103.927 Y99.210 E39.93810
G1 X103.927 Y100.153 E39.99042
G1 X99.847 Y96.073 E40.31043
G1 X98.903 Y96.073 E40.36275
G1 X103.927 Y101.097 E40.75674
G1 X103.927 Y102.040 E40.80906
G1 X97.960 Y96.073 E41.27705
G1 X97.017 Y96.073 E41.32937
G1 X103.927 Y102.983 E41.87135
G1 X103.907 Y103.907 E41.92257
G1 X96.093 Y96.093 E42.53540
G1 X96.073 Y97.017 E42.58662
G1 X102.983 Y103.927 E43.12859
G1 X102.040 Y103.927 E43.18091
G1 X96.073 Y97.960 E43.64890
G1 X96.073 Y98.903 E43.70122
G1 X101.097 Y103.927 E44.09521
G1 X100.153 Y103.927 E44.14753
G1 X96.073 Y99.847 E44.46754
G1 X96.073 Y100.790 E44.51986
G1 X99.210 Y103.927 E44.76587
G1 X98.267 Y103.927 E44.81819
G1 X96.073 Y101.733 E44.99022
G1 X96.073 Y102.677 E45.04254
G1 X97.323 Y103.927 E45.14057
G1 X96.380 Y103.927 E45.19289
G1 X96.073 Y103.620 E45.21694
G1 Z1.200 F9000.000
G1 X104.307 Y104.307 F9000.000
G1 X95.693 Y104.307 E45.66700 F2400.000
G1 X95.693 Y95.693 E46.11707
G1 X104.307 Y95.693 E46.56714
G1 X104.307 Y104.247 E47.01408
G1 X104.800 Y104.800 F9000.000
G1 X95.200 Y104.800 E47.29911 F2400.000
G1 X95.200 Y95.200 E47.58415
G1 X104.800 Y95.200 E47.86919
G1 X104.800 Y104.740 E48.15244
G1 X104.454 Y104.600 F9000.000
G1 X103.620 Y103.927 F9000.000
G1 X103.927 Y103.620 E48.17649 F2700.000
G1 X103.927 Y102.677 E48.22881
G1 X102.677 Y103.927 E48.32684
G1 X101.733 Y103.927 E48.37916
G1 X103.927 Y101.733 E48.55119
G1 X103.927 Y100.790 E48.60351
G1 X100.790 Y103.927 E48.84952
G1 X99.847 Y103.927 E48.90184
G1 X103.927 Y99.847 E49.22185
G1 X103.927 Y98.903 E49.27417
G1 X98.903 Y103.927 E49.66817
G1 X97.960 Y103.927 E49.72048
G1 X103.927 Y97.960 E50.18847
G1 X103.927 Y97.017 E50.24079
G1 X97.017 Y103.927 E50.78277
G1 X96.093 Y103.907 E50.83399
G1 X103.907 Y96.093 E51.44682
G1 X102.983 Y96.073 E51.49804
G1 X96.073 Y102.983 E52.04002
G1 X96.073 Y102.040 E52.09234
G1 X102.040 Y96.073 E52.56032
G1 X101.097 Y96.073 E52.61264
G1 X96.073 Y101.097 E53.00664
G1 X96.073 Y100.153 E53.05895
G1 X100.153 Y96.073 E53.37896
G1 X99.210 Y96.073 E53.43128
G1 X96.073 Y99.210 E53.67729
G1 X96.073 Y98.267 E53.72961
G1 X98.267 Y96.073 E53.90164
G1 X97.323 Y96.073 E53.95396
G1 X96.073 Y97.323 E54.05199
G1 X96.073 Y96.380 E54.10431
G1 X96.380 Y96.073 E54.12836
G1 Z1.400 F9000.000
G1 X104.307 Y104.307 F9000.000
G1 X95.693 Y104.307 E54.57843 F2400.000
G1 X95.693 Y95.693 E55.02850
G1 X104.307 Y95.693 E55.47856
G1 X104.307 Y104.247 E55.92550
G1 X104.800 Y104.800 F9000.000
G1 X95.200 Y104.800 E56.21054 F2400.000
G1 X95.200 Y95.200 E56.49557
G1 X104.800 Y95.200 E56.78061
G1 X104.800 Y104.740 E57.06386
G1 X104.454 Y104.600 F9000.000
G1 X103.927 Y96.380 F9000.000
G1 X103.620 Y96.073 E57.08791 F2700.000
G1 X102.677 Y96.073 E57.14023
G1 X103.927 Y97.323 E57.23827
G1 X103.927 Y98.267 E57.29058
G1 X101.733 Y96.073 E57.46261
G1 X100.790 Y96.073 E57.51493
G1 X103.927 Y99.210 E57.76095
G1 X103.927 Y100.153 E57.81327
G1 X99.847 Y96.073 E58.13327
G1 X98.903 Y96.073 E58.18559
G1 X103.927 Y101.097 E58.57959
G1 X103.927 Y102.040 E58.63191
G1 X97.960 Y96.073 E59.09989
G1 X97.017 Y96.073 E59.15221
G1 X103.927 Y102.983 E59.69419
G1 X103.907 Y103.907 E59.74541
G1 X96.093 Y96.093 E60.35824
G1 X96.073 Y97.017 E60.40946
G1 X102.983 Y103.927 E60.95144
G1 X102.040 Y103.927 E61.00376
G1 X96.073 Y97.960 E61.47174
G1 X96.073 Y98.903 E61.52406
G1 X101.097 Y103.927 E61.91806
G1 X100.153 Y103.927 E61.97038
G1 X96.073 Y99.847 E62.29038
G1 X96.073 Y100.790 E62.34270
G1 X99.210 Y103.927 E62.58872
G1 X98.267 Y103.927 E62.64104
G1 X96.073 Y101.733 E62.81306
G1 X96.073 Y102.677 E62.86538
G1 X97.323 Y103.927 E62.96342
G1 X96.380 Y103.927 E63.01573
G1 X96.073 Y103.620 E63.03978
G1 Z1.600 F9000.000
G1 X104.307 Y104.307 F9000.000
G1 X95.693 Y104.307 E63.48985 F2400.000
G1 X95.693 Y95.693 E63.93992
G1 X104.307 Y95.693 E64.38999
G1 X104.307 Y104.247 E64.83692
G1 X104.800 Y104.800 F9000.000
G1 X95.200 Y104.800 E65.12196 F2400.000
G1 X95.200 Y95.200 E65.40699
G1 X104.800 Y95.200 E65.69203
G1 X104.800 Y104.740 E65.97529
G1 X104.454 Y104.600 F9000.000
G1 X103.620 Y103.927 F9000.000
G1 X103.927 Y103.620 E65.99933 F2700.000
G1 X103.927 Y102.677 E66.05165
G1 X102.677 Y103.927 E66.14969
G1 X101.733 Y103.927 E66.20201
G1 X103.927 Y101.733 E66.37403
G1 X103.927 Y100.790 E66.42635
G1 X100.790 Y103.927 E66.67237
G1 X99.847 Y103.927 E66.72469
G1 X103.927 Y99.847 E67.04469
G1 X103.927 Y98.903 E67.09701
G1 X98.903 Y103.927 E67.49101
G1 X97.960 Y103.927 E67.54333
G1 X103.927 Y97.960 E68.01132
G1 X103.927 Y97.017 E68.06364
G1 X97.017 Y103.927 E68.60561
G1 X96.093 Y103.907 E68.65683
G1 X103.907 Y96.093 E69.26966
G1 X102.983 Y96.073 E69.32088
G1 X96.073 Y102.983 E69.86286
G1 X96.073 Y102.040 E69.91518
G1 X102.040 Y96.073 E70.38317
G1 X101.097 Y96.073 E70.43548
G1 X96.073 Y101.097 E70.82948
G1 X96.073 Y100.153 E70.88180
G1 X100.153 Y96.073 E71.20180
G1 X99.210 Y96.073 E71.25412
G1 X96.073 Y99.210 E71.50014
G1 X96.073 Y98.267 E71.55246
G1 X98.267 Y96.073 E71.72448
G1 X97.323 Y96.073 E71.77680
G1 X96.073 Y97.323 E71.87484
G1 X96.073 Y96.380 E71.92716
G1 X96.380 Y96.073 E71.95120
G1 Z1.800 F9000.000
G1 X104.307 Y104.307 F9000.000
G1 X95.693 Y104.307 E72.40127 F2400.000
G1 X95.693 Y95.693 E72.85134
G1 X104.307 Y95.693 E73.30141
G1 X104.307 Y104.247 E73.74834
G1 X104.800 Y104.800 F9000.000
G1 X95.200 Y104.800 E74.03338 F2400.000
G1 X95.200 Y95.200 E74.31842
G1 X104.800 Y95.200 E74.60345
G1 X104.800 Y104.740 E74.88671
G1 X104.454 Y104.600 F9000.000
G1 X103.927 Y96.380 F9000.000
G1 X103.620 Y96.073 E74.91075 F2700.000
G1 X102.677 Y96.073 E74.96307
G1 X103.927 Y97.323 E75.06111
G1 X103.927 Y98.267 E75.11343
G1 X101.733 Y96.073 E75.28546
G1 X100.790 Y96.073 E75.33777
G1 X103.927 Y99.210 E75.58379
G1 X103.927 Y100.153 E75.63611
G1 X99.847 Y96.073 E75.95612
